src/images/svg/payment-methods/payment-tether.svg

<svg width="128" height="80" viewBox="0 0 128 80" fill="none" xmlns="http://www.w3.org/2000/svg">
<path d="M37.5616 27.5625L42.6087 38.5802L28.3051 52.9862L14 38.5787L19.0486 27.5625H37.5631H37.5616ZM34.449 31.8503H21.9669V34.9267H26.5499V36.9455C22.8241 37.1173 20.0218 37.8585 20.0218 38.7504C20.0218 39.6408 22.8256 40.3836 26.5499 40.5584V47.0246H29.8644V40.5584C33.5857 40.3851 36.3819 39.6423 36.3819 38.752C36.3819 37.8631 33.5857 37.1188 29.8644 36.9471L29.8629 36.944V34.9267H34.4475V31.8503H34.449ZM26.5499 37.1761V39.4314C26.7638 39.4465 27.3815 39.4842 28.2343 39.4842C29.2588 39.4842 29.7695 39.439 29.8644 39.4314V37.1776C33.1518 37.3267 35.6015 37.9022 35.6015 38.5938C35.6015 39.2823 33.1488 39.8593 29.8644 40.0069V40.0039C29.7785 40.01 29.3672 40.0341 28.4738 40.0371H28.2177C27.362 40.0371 26.7623 40.0145 26.5499 40.0039V40.0054C23.2565 39.8593 20.8008 39.2823 20.8008 38.5892C20.8008 37.9007 23.258 37.3222 26.5499 37.1761Z" fill="#1DB193"/>
<path d="M53.3677 32.6907V35.9539H56.5149V38.4021H53.3451V43.3649C53.3451 44.4601 53.9462 44.9965 54.826 44.9965C55.266 44.9965 55.7752 44.8564 56.191 44.647L56.979 47.0696C56.1699 47.395 55.498 47.5351 54.6407 47.5592C52.1654 47.6526 50.5458 46.2319 50.5458 43.3649V38.4006H48.417V35.9524H50.5458V32.995L53.3661 32.6907H53.3677ZM107.638 35.8003L107.846 37.1261C108.726 35.7053 109.906 35.4959 111.063 35.4959C112.242 35.4959 113.377 35.963 114 36.5897L112.727 39.0605C112.149 38.5709 111.618 38.3133 110.693 38.3133C109.211 38.3133 107.846 39.1057 107.846 41.2255V47.285H105.023V35.7957L107.638 35.8003ZM100.72 40.2025C100.535 38.711 99.3774 37.9637 97.7579 37.9637C96.2317 37.9637 94.9812 38.711 94.5639 40.2025H100.72ZM94.5187 42.5558C94.704 43.978 95.9304 45.004 97.9206 45.004C98.9601 45.004 100.327 44.6063 100.976 43.9313L102.779 45.7257C101.576 46.9837 99.6094 47.5908 97.8723 47.5908C93.9401 47.5908 91.6004 45.1441 91.6004 41.462C91.6004 37.9667 93.9613 35.4492 97.6645 35.4492C101.482 35.4492 103.867 37.8266 103.427 42.5558H94.5187ZM82.0712 30.9731V37.3581C83.0897 36.0293 84.3386 35.633 85.6343 35.633C88.8735 35.633 90.3093 37.8477 90.3093 41.227V47.285H87.4859V41.2526C87.4859 39.1539 86.3982 38.2696 84.8946 38.2696C83.2268 38.2696 82.0712 39.6903 82.0712 41.4153V47.2895H79.2479V30.9762L82.0712 30.9747V30.9731ZM74.5744 32.5581V35.8198H77.7217V38.2681H74.5518V43.2308C74.5518 44.3276 75.1545 44.8624 76.0328 44.8624C76.4727 44.8624 76.982 44.7223 77.3993 44.5129L78.1857 46.9355C77.3767 47.2609 76.7047 47.4025 75.849 47.4251C73.3722 47.5185 71.7526 46.0948 71.7526 43.2308V38.2696H69.6238V35.8214H71.7526V32.8654L74.5744 32.5611V32.5581ZM66.7763 40.204C66.591 38.7125 65.4339 37.9652 63.8144 37.9652C62.2882 37.9652 61.0362 38.7125 60.6204 40.204H66.7763ZM60.5752 42.5573C60.759 43.9795 61.9869 45.0055 63.9771 45.0055C65.0166 45.0055 66.3831 44.6078 67.0309 43.9328L68.8358 45.7272C67.6305 46.9852 65.666 47.5924 63.9289 47.5924C59.9936 47.5924 57.6569 45.1456 57.6569 41.4635C57.6569 37.9682 60.0177 35.4507 63.7194 35.4507C67.5371 35.4507 69.9191 37.8281 69.4806 42.5573H60.5752Z" fill="#5B5A5D"/>
</svg>

<svg width="128" height="80" fill="none" xmlns="http://www.w3.org/2000/svg"><path d="m37.562 27.563 5.047 11.017-14.304 14.406L14 38.58l5.049-11.017h18.514-.001zm-3.113 4.287H21.967v3.077h4.583v2.019c-3.726.171-6.528.913-6.528 1.804 0 .89 2.804 1.634 6.528 1.808v6.467h3.314v-6.467c3.722-.173 6.518-.916 6.518-1.806 0-.889-2.796-1.633-6.518-1.805l-.001-.003v-2.017h4.584V31.85h.002zm-7.9 5.326v2.255c.215.016.832.053 1.685.053 1.025 0 1.535-.045 1.63-.053v-2.253c3.288.149 5.738.724 5.738 1.416 0 .688-2.453 1.265-5.738 1.413v-.003c-.085.006-.497.03-1.39.033h-.256a36.33 36.33 0 0 1-1.668-.033v.001c-3.294-.146-5.75-.723-5.75-1.416 0-.688 2.458-1.267 5.75-1.413z" fill="#1DB193"/><path d="M53.367 32.69v3.264h3.148v2.448h-3.17v4.963c0 1.095.6 1.631 1.48 1.631.44 0 .95-.14 1.366-.35l.787 2.423a6.298 6.298 0 0 1-2.338.49c-2.475.093-4.095-1.327-4.095-4.194V38.4h-2.128v-2.448h2.128v-2.957l2.82-.305h.002zm54.271 3.11.208 1.326c.879-1.42 2.059-1.63 3.216-1.63 1.18 0 2.314.467 2.938 1.093l-1.273 2.471c-.579-.49-1.109-.747-2.034-.747-1.482 0-2.847.792-2.847 2.912v6.06h-2.824v-11.49l2.616.005zm-6.919 4.402c-.185-1.491-1.342-2.238-2.962-2.238-1.526 0-2.776.747-3.194 2.238h6.156zm-6.2 2.354c.185 1.422 1.411 2.448 3.401 2.448 1.04 0 2.406-.398 3.056-1.073l1.803 1.794c-1.204 1.258-3.17 1.866-4.907 1.866-3.932 0-6.272-2.447-6.272-6.13 0-3.494 2.36-6.012 6.064-6.012 3.818 0 6.203 2.377 5.763 7.107h-8.909zM82.07 30.973v6.385c1.018-1.329 2.267-1.725 3.563-1.725 3.24 0 4.675 2.214 4.675 5.594v6.058h-2.823v-6.033c0-2.098-1.088-2.983-2.592-2.983-1.668 0-2.823 1.421-2.823 3.146v5.874h-2.823V30.976l2.823-.002v-.001zm-7.497 1.585v3.262h3.147v2.448h-3.17v4.962c0 1.097.603 1.632 1.481 1.632.44 0 .95-.14 1.367-.35l.786 2.423a6.266 6.266 0 0 1-2.336.49c-2.477.093-4.097-1.33-4.097-4.194v-4.962h-2.129v-2.448h2.13v-2.956l2.821-.304v-.003zm-7.798 7.646c-.185-1.492-1.343-2.239-2.962-2.239-1.526 0-2.778.747-3.194 2.239h6.156zm-6.201 2.353c.184 1.422 1.411 2.448 3.402 2.448 1.04 0 2.406-.397 3.054-1.072l1.804 1.794c-1.205 1.258-3.17 1.865-4.907 1.865-3.935 0-6.271-2.447-6.271-6.129 0-3.495 2.36-6.013 6.062-6.013 3.818 0 6.2 2.378 5.761 7.107h-8.905z" fill="#5B5A5D"/></svg>
